X:590
T:
S:Upptecknad, såsom båtsman »Hesselby» i Rone spelat den för samlaren.
R:schottis
O:Gotland, Rone
M:2/4
L:1/16
K:D
Ad|f2A2 A2d2|d2c2 c2ce|g2c2 b2c2|agfe d2 Ad|f2A2 A2d2|d2c2 c2 ce|b2af
agef|d2d2 d2::fg|a2A2 d2f2|gfed e2 ef|g2A2 c2e2|g2fe defg|a2A2 d2f2|gfed
e2 ef|g2A2 A2ce|d2d2 d2:|

